X:1
T:Psalm 28
T:V 7
L:1/4
M:12/4
I:linebreak $
K:G
V:1 treble nm="Pipe Organ" snm="Org."
V:1
 E2 G E D E G F E3 z |$ G2 A A B G A A B3 z |$ B2 c B d B A A G3 z |$ B2 G A G F E ^D E4 |] %4
w: Dus steun my hart net op u mag,|en ju- bel ek met al my krag.|U is ons sterk- te\_en- te- ë- weer,|'n rots vir u ge- salf- de, HEER!|

